icons/database-24.svg

<svg xmlns="http://www.w3.org/2000/svg" width="24" height="24" viewBox="0 0 24 24"><path d="M12 1.25c2.487 0 4.773.402 6.466 1.079.844.337 1.577.758 2.112 1.264.536.507.922 1.151.922 1.907v12.987l-.026.013h.026c0 .756-.386 1.4-.922 1.907-.535.506-1.268.927-2.112 1.264-1.693.677-3.979 1.079-6.466 1.079s-4.774-.402-6.466-1.079c-.844-.337-1.577-.758-2.112-1.264C2.886 19.9 2.5 19.256 2.5 18.5h.026l-.026-.013V5.5c0-.756.386-1.4.922-1.907.535-.506 1.268-.927 2.112-1.264C7.226 1.652 9.513 1.25 12 1.25zM4 14.371v4.116l-.013.013H4c0 .211.103.487.453.817.351.332.898.666 1.638.962 1.475.589 3.564.971 5.909.971 2.345 0 4.434-.381 5.909-.971.739-.296 1.288-.63 1.638-.962.349-.33.453-.607.453-.817h.013L20 18.487v-4.116a7.85 7.85 0 01-1.534.8c-1.693.677-3.979 1.079-6.466 1.079s-4.774-.402-6.466-1.079a7.843 7.843 0 01-1.534-.8zM20 12V7.871a7.85 7.85 0 01-1.534.8C16.773 9.348 14.487 9.75 12 9.75s-4.774-.402-6.466-1.079A7.85 7.85 0 014 7.871V12c0 .21.104.487.453.817.35.332.899.666 1.638.961 1.475.59 3.564.972 5.909.972 2.345 0 4.434-.382 5.909-.972.74-.295 1.287-.629 1.638-.96.35-.33.453-.607.453-.818zM4 5.5c0 .211.103.487.453.817.351.332.898.666 1.638.962 1.475.589 3.564.971 5.909.971 2.345 0 4.434-.381 5.909-.971.739-.296 1.288-.63 1.638-.962.349-.33.453-.607.453-.817 0-.211-.103-.487-.453-.817-.351-.332-.898-.666-1.638-.962-1.475-.589-3.564-.971-5.909-.971-2.345 0-4.434.381-5.909.971-.739.296-1.288.63-1.638.962C4.104 5.013 4 5.29 4 5.5z"/></svg>

<svg xmlns="http://www.w3.org/2000/svg" width="24" height="24" viewBox="0 0 24 24">
  <defs/>
  <path d="M12,1.25 C14.487,1.25 16.773,1.652 18.466,2.329 C19.31,2.666 20.043,3.087 20.578,3.593 C21.114,4.1 21.5,4.744 21.5,5.5 L21.5,18.487 L21.474,18.5 L21.5,18.5 C21.5,19.256 21.114,19.9 20.578,20.407 C20.043,20.913 19.31,21.334 18.466,21.671 C16.773,22.348 14.487,22.75 12,22.75 C9.513,22.75 7.226,22.348 5.534,21.671 C4.69,21.334 3.957,20.913 3.422,20.407 C2.886,19.9 2.5,19.256 2.5,18.5 L2.526,18.5 L2.5,18.487 L2.5,5.5 C2.5,4.744 2.886,4.1 3.422,3.593 C3.957,3.087 4.69,2.666 5.534,2.329 C7.226,1.652 9.513,1.25 12,1.25 Z M4,14.371 L4,18.487 L3.987,18.5 L4,18.5 C4,18.711 4.103,18.987 4.453,19.317 C4.804,19.649 5.351,19.983 6.091,20.279 C7.566,20.868 9.655,21.25 12,21.25 C14.345,21.25 16.434,20.869 17.909,20.279 C18.648,19.983 19.197,19.649 19.547,19.317 C19.896,18.987 20,18.71 20,18.5 L20.013,18.5 L20,18.487 L20,14.371 C19.52,14.693 19.005,14.962 18.466,15.171 C16.773,15.848 14.487,16.25 12,16.25 C9.513,16.25 7.226,15.848 5.534,15.171 C4.963,14.943 4.443,14.676 4,14.371 Z M20,12 L20,7.871 C19.52,8.193 19.005,8.462 18.466,8.671 C16.773,9.348 14.487,9.75 12,9.75 C9.513,9.75 7.226,9.348 5.534,8.671 C4.995,8.462 4.48,8.193 4,7.871 L4,12 C4,12.21 4.104,12.487 4.453,12.817 C4.803,13.149 5.352,13.483 6.091,13.778 C7.566,14.368 9.655,14.75 12,14.75 C14.345,14.75 16.434,14.368 17.909,13.778 C18.649,13.483 19.196,13.149 19.547,12.818 C19.897,12.488 20,12.211 20,12 Z M4,5.5 C4,5.711 4.103,5.987 4.453,6.317 C4.804,6.649 5.351,6.983 6.091,7.279 C7.566,7.868 9.655,8.25 12,8.25 C14.345,8.25 16.434,7.869 17.909,7.279 C18.648,6.983 19.197,6.649 19.547,6.317 C19.896,5.987 20,5.71 20,5.5 C20,5.289 19.897,5.013 19.547,4.683 C19.196,4.351 18.649,4.017 17.909,3.721 C16.434,3.132 14.345,2.75 12,2.75 C9.655,2.75 7.566,3.131 6.091,3.721 C5.352,4.017 4.803,4.351 4.453,4.683 C4.104,5.013 4,5.29 4,5.5 Z"/>
</svg>
